X: 155
T: Ağlasam Her Lahza
C: Gülbenkyan
O: Turkey
F: http://compmusic.upf.edu/node/140
N: rast--sarki--curcuna--aglasam_her--gulbenkyan
N: makam= rast
N: form= sarki
N: usul= curcuna = 10/8
M: 10/8
L: 1/16
K: C _1/4B ^f  
Q: 1/4=204
%%MIDI tuningsystem comma53
d2c2 d2e4d2 e2c4z2  | B2A2 B2c4A2 c2B4A2  | \
w:  ARANAĞME  |   | 
G4 A2B2 c2d2 e2=f2 e2d2  | 
w:   | 
a2g2 =f2e2 d2e2 c2d6  | d2c2 d2e4d2 e2c4z2  | \
w:   |  ARANAĞME  | 
B2A2 B2c4A2 c2B4A2  | 
w:   | 
G4 g2=f2 e2d2 c2B2 A2G2  | A4 c2B2 A2G2 F2G6  | \
w:   |   | 
G6G4A2 B2c4B2  | 
w:  Ağ la sam   | 
d8-d2d2 c2B2 A2G2  | B6B2 A2A2 G2B2 A2G2  | \
w:  her   |  lâh za  *  hak  | 
G18z2  | d2c2 e2d4g2 f2a2 g4  | 
w:  kım   |  yok   | 
d2c2 e2d4d2 c2B2 A2G2  | =f4 e2e2 d2d2 c2d6  | \
w:   |  yok  *  mu *  dur    | 
d4 e2d2 c2B2 A2G6  | 
w:  SAZ  | 
G6G4A2 B2c4B2  | d8-d2d2 c2B2 A2G2  | \
w:  Ağ la sam   |  her   | 
B6B2 A2A2 G2B2 A2G2  | 
w:  lâh za  *  hak  | 
G18z2  | d2c2 e2d4g2 f2a2 g4  | d2c2 e2d4d2 c2B2 A2G2  | \
w:  kım   |  yok   |   | 
=f4 e2e2 d2d2 c2d6  | 
w:  yok  *  mu *  dur    | 
d4 =f2e2 d2e2 c2d6  | g4 =f2f2 e2e2 d2d4c2  | \
w:  SAZ  |  Gök *  le *  re   | 
=f8-=f2f2 e2e4d2  | 
w:  çık  | 
d4 c2c2 B2B2 A2A4G2  | d2c2 e2d4g2 f2a2 g4  | \
w:  sa  *  fi *  ga  |  nım   | 
d2c2 e2d4d2 c2B2 A2G2  | 
w:   | 
B4 A2A2 G2G8-G2  | d4 =f2e2 d2e2 c2d6  | \
w:  çok  *  mu *  dur    |  SAZ  | 
g4 =f2f2 e2e2 d2d4c2  | 
w:  Gök *  le *  re   | 
=f8-=f2f2 e2e4d2  | d4 c2c2 B2B2 A2A4G2  | \
w:  çık  |  sa  *  fi *  ga  | 
d2c2 e2d4g2 f2a2 g4  | 
w:  nım   | 
d2c2 e2d4d2 c2B2 A2G2  | B4 A2A2 G2G8-G2  | \
w:   |  çok  *  mu *  dur    | 
d4 e2f2 g2f2 a2g6  | 
w:  SAZ  | 
e6f4g2 f2g4z2  | g2f2 g2a4a2 g2g4f2  | \
w:  Der di mi   |  müz  | 
e6f4a2 g2f2 e2d2  | 
w:  dâd_ e der   | 
g2f2 g2a4a2 g2a2 c'4  | b2a2 g2b4a2 g2f2 e2d2  | \
w:  hep   |   | 
b4 a2a2 g2g2 f2g6  | 
w:  sev *  di *  ğim    | 
d4 e2f2 g2f2 a2g6  | e6f4g2 f2g4z2  | \
w:  SAZ  |  Der di mi   | 
g2f2 g2a4a2 g2g4f2  | 
w:  müz  | 
e6f4a2 g2f2 e2d2  | d2c2 e2d4g2 f2a2 g4  | \
w:  dâd_ e der   |  hep   | 
d2c2 e2d4d2 c2B2 A2G2  | 
w:   | 
=f4 e2e2 d2d2 c2d6  | d4 =f2e2 d2e2 c2d6  | \
w:  sev *  di *  ğim    |  SAZ  | 
g4 =f2f2 e2e2 d2d4c2  | 
w:  Gök *  le *  re   | 
=f8-=f2f2 e2e4d2  | d4 c2c2 B2B2 A2A4G2  | \
w:  çık  |  sa  *  fi *  ga  | 
d2c2 e2d4g2 f2a2 g4  | 
w:  nım   | 
d2c2 e2d4d2 c2B2 A2G2  | B4 A2A2 G2G8-G2  | \
w:   |  çok  *  mu *  dur    | 
d4 =f2e2 d2e2 c2d6  | 
w:  SAZ  | 
g4 =f2f2 e2e2 d2d4c2  | =f8-=f2f2 e2e4d2  | \
w:  Gök *  le *  re   |  çık  | 
d4 c2c2 B2B2 A2A4G2  | 
w:  sa  *  fi *  ga  | 
d2c2 e2d4g2 f2a2 g4  | d2c2 e2d4d2 c2B2 A2G2  | \
w:  nım   |   | 
B4 A2A2 G2G8-G2  | 
w:  çok  *  mu *  dur    | 
D4 E2F2 G2B2 A2G6  | |


